X:4641
L:1/8
Q:1/8=160
M:6/8
K:D
 E | DED F2 A | dfe d2 A | BAF Adf | afd e2 E | DED F2 A | dfe d2 B | d2 B AFA | dAF E2 :| D | 
 dfa afa | bge edB | dfa afa | bge e2 f | dfa afa | bge edB | d2 B AFA |1 dAF E2 :|2 
 BGE !fermata!D3 |]

